assets/images/icons/set1/settings.svg

<svg xmlns="http://www.w3.org/2000/svg" width="28" height="28" xmlns:xlink="http://www.w3.org/1999/xlink" id="set1-setting">
  <use xlink:href="#a13" transform="translate(7 7)"/>
  <use xlink:href="#b13" transform="translate(11.083 11.08)"/>
  <defs>
    <path id="a13" fill-rule="evenodd" d="M12.6595 2.76038l-.6364 1.27282c.1562.26355.2905.53797.4024.82227.0882.22412.1624.45447.2223.69031l1.3516.45031V8.0033l-1.3516.45031c-.1364.53443-.3459 1.04077-.6253 1.5127l.6364 1.27279-1.4198 1.4198-1.27285-.6364c-.47132.2794-.97766.4889-1.51258.6253l-.45031 1.3516H5.99609l-.45031-1.3516c-.53437-.1364-1.04071-.3459-1.51264-.6253l-1.27283.6364-1.41979-1.4198.63641-1.27279c-.27942-.47144-.48883-.97778-.62537-1.5127L0 8.0033V5.99609l1.35217-.45031c.13648-.53431.34589-1.04065.62531-1.51258l-.63642-1.27282 1.41987-1.41993 1.27282.63648c.47193-.27942.97827-.48889 1.51258-.62537L5.99664 0h2.00727l.45031 1.35156c.53437.13648 1.04071.34595 1.51264.62537l1.27284-.63648 1.4198 1.41993zm-1.0156 4.79907l1.1894-.39661v-.32617l-1.1894-.39661-.0647-.33484c-.1208-.6195-.3588-1.1958-.7082-1.71325l-.1908-.28235.56-1.12-.2304-.23034-1.11997.55993-.28235-.19079c-.518-.34937-1.0943-.58789-1.71325-.70813l-.33484-.0647-.39667-1.18945h-.32605L6.44 2.35559l-.33484.0647c-.61889.12024-1.19525.35876-1.71325.70813l-.28235.19079-1.12-.55993-.2304.23034.55999 1.12-.19073.28235c-.34943.51745-.5874 1.09375-.70819 1.71325l-.06476.33484-1.18939.39661v.32617l1.18939.39661.06476.33484c.12079.6195.35876 1.1958.70819 1.71325l.19073.28235-.55999 1.12001.2304.2305 1.12-.5601.28235.1908c.51739.3494 1.09375.5874 1.71325.7081l.33484.0647.39667 1.1895h.32605l.39667-1.1895.33484-.0647c.6195-.1207 1.19586-.3587 1.71325-.7081l.28235-.1908 1.11997.5601.2304-.2305-.56-1.12001.1908-.28235c.3494-.51745.5874-1.09375.7082-1.71325l.0647-.33484z"/>
    <path id="b13" fill-rule="evenodd" d="M0 2.91663C0 1.30847 1.30841 0 2.91669 0 4.5249 0 5.83331 1.30847 5.83331 2.91663c0 1.60827-1.30841 2.91674-2.91662 2.91674C1.30841 5.83337 0 4.5249 0 2.91663zm1.16669 0c0 .96484.78515 1.75 1.75 1.75.96484 0 1.75-.78516 1.75-1.75 0-.96485-.78516-1.75-1.75-1.75-.96485 0-1.75.78515-1.75 1.75z"/>
  </defs>
</svg>

<svg width="28" height="28" viewBox="0 0 28 28" version="1.1" xmlns="http://www.w3.org/2000/svg" xmlns:xlink="http://www.w3.org/1999/xlink">
<title>@$&#9;</title>
<desc>Created using Figma</desc>
<g id="Canvas" transform="translate(-836 -1774)">
<g id="Icon/Presta/White/Phone">
<g id="Icon/Presta/White/Settings">
<g id="Group 6">
<g id="Shape">
<use xlink:href="#path0_fill" transform="translate(843 1781)" fill="#202A37"/>
</g>
<g id="Shape">
<use xlink:href="#path1_fill" transform="translate(847.083 1785.08)" fill="#202A37"/>
</g>
</g>
</g>
</g>
</g>
<defs>
<path id="path0_fill" fill-rule="evenodd" d="M 12.6595 2.76038L 12.0231 4.0332C 12.1793 4.29675 12.3136 4.57117 12.4255 4.85547C 12.5137 5.07959 12.5879 5.30994 12.6478 5.54578L 13.9994 5.99609L 13.9994 8.0033L 12.6478 8.45361C 12.5114 8.98804 12.3019 9.49438 12.0225 9.96631L 12.6589 11.2391L 11.2391 12.6589L 9.96625 12.0225C 9.49493 12.3019 8.98859 12.5114 8.45367 12.6478L 8.00336 13.9994L 5.99609 13.9994L 5.54578 12.6478C 5.01141 12.5114 4.50507 12.3019 4.03314 12.0225L 2.76031 12.6589L 1.34052 11.2391L 1.97693 9.96631C 1.69751 9.49487 1.4881 8.98853 1.35156 8.45361L 0 8.0033L 0 5.99609L 1.35217 5.54578C 1.48865 5.01147 1.69806 4.50513 1.97748 4.0332L 1.34106 2.76038L 2.76093 1.34045L 4.03375 1.97693C 4.50568 1.69751 5.01202 1.48804 5.54633 1.35156L 5.99664 0L 8.00391 0L 8.45422 1.35156C 8.98859 1.48804 9.49493 1.69751 9.96686 1.97693L 11.2397 1.34045L 12.6595 2.76038ZM 11.6439 7.55945L 12.8333 7.16284L 12.8333 6.83667L 11.6439 6.44006L 11.5792 6.10522C 11.4584 5.48572 11.2204 4.90942 10.871 4.39197L 10.6802 4.10962L 11.2402 2.98962L 11.0098 2.75928L 9.88983 3.31921L 9.60748 3.12842C 9.08948 2.77905 8.51318 2.54053 7.89423 2.42029L 7.55939 2.35559L 7.16272 1.16614L 6.83667 1.16614L 6.44 2.35559L 6.10516 2.42029C 5.48627 2.54053 4.90991 2.77905 4.39191 3.12842L 4.10956 3.31921L 2.98956 2.75928L 2.75916 2.98962L 3.31915 4.10962L 3.12842 4.39197C 2.77899 4.90942 2.54102 5.48572 2.42023 6.10522L 2.35547 6.44006L 1.16608 6.83667L 1.16608 7.16284L 2.35547 7.55945L 2.42023 7.89429C 2.54102 8.51379 2.77899 9.09009 3.12842 9.60754L 3.31915 9.88989L 2.75916 11.0099L 2.98956 11.2404L 4.10956 10.6803L 4.39191 10.8711C 4.9093 11.2205 5.48566 11.4585 6.10516 11.5792L 6.44 11.6439L 6.83667 12.8334L 7.16272 12.8334L 7.55939 11.6439L 7.89423 11.5792C 8.51373 11.4585 9.09009 11.2205 9.60748 10.8711L 9.88983 10.6803L 11.0098 11.2404L 11.2402 11.0099L 10.6802 9.88989L 10.871 9.60754C 11.2204 9.09009 11.4584 8.51379 11.5792 7.89429L 11.6439 7.55945Z"/>
<path id="path1_fill" fill-rule="evenodd" d="M 0 2.91663C 0 1.30847 1.30841 0 2.91669 0C 4.5249 0 5.83331 1.30847 5.83331 2.91663C 5.83331 4.5249 4.5249 5.83337 2.91669 5.83337C 1.30841 5.83337 0 4.5249 0 2.91663ZM 1.16669 2.91663C 1.16669 3.88147 1.95184 4.66663 2.91669 4.66663C 3.88153 4.66663 4.66669 3.88147 4.66669 2.91663C 4.66669 1.95178 3.88153 1.16663 2.91669 1.16663C 1.95184 1.16663 1.16669 1.95178 1.16669 2.91663Z"/>
</defs>
</svg>
